X: 1
T: FLOWER OF DONNYBROOK
R: reel
Z: 2006 John Chambers <jc@trillian.mit.edu>
B: "Rinnci na h-\'Eireann" Elizabeth Burchenal, ed. G.Schirmer (1925) p.24
N: This is a version of Flowers of Edinburgh
M: 2/4
L: 1/16
Q: 1/4=112
K: G
|: "G"D2DE G2GA | BGBd cBAG | "C"GFEF "G"DEFG | "D7"AFdF E2FE |
|  "G"D2DE G2GA | BGBd "C"efge | "G"dcBA "D7"GFGA |1 "G"B2G2G2 FE :|2 "G"B2G2G2 ef |]
|:"Em"gfga gbag | "D"fefg fagf | "Em"edef gfed | B2e2e2 fg |
|  "G"dBGB d2cB | "C"egfa gfge | "G"dcBA "D7"GFGA |1 "G"B2G2G2 ef :|2 "G"B2G2G2 z2 |]
